X: 4
T: Polska # 4
T: efter Johan Karlsson
M: 3/4
L: 1/16
K: Dmaj
Q:120
|: D4 D3F A3d | f4 f3{gf}e (d4{ed)}| D4 D3F A3G| B4 B3{cB}A G3F| E4 E3A c3e| g4 g3f e3d| c4c3B A3G |
(B2cB) A3G F4| D4 D3F A3d | f4 f3{gf}e (d4{ed)}| D4 D3F A3G| B4 B3{cB}A G3F| E4 E3A c3e| g4 g3f e3d|
c3d c3A B3c | d4 d4 z4 :: {a}(g2ag) B6 (g2| (3f2g2f2) A6 d2| (cdcB) A4 B3c| d3c d3e f3a| (g2ag) B6 (g2|
(3f2g2f2) A6 f2| e3d c3A B3c| d4 d4 z4 :|